material/.icons/material/alert-circle-check.svg

<svg xmlns="http://www.w3.org/2000/svg" viewBox="0 0 24 24"><path d="M18.75 22.16l-2.75-3L17.16 18l1.59 1.59L22.34 16l1.16 1.41-4.75 4.75M13 13V7h-2v6h2m0 4v-2h-2v2h2M12 2c5.5 0 10 4.5 10 10l-.09 1.31A6.005 6.005 0 0014 19c0 .95.22 1.85.62 2.65-.84.23-1.71.35-2.62.35-5.5 0-10-4.5-10-10S6.5 2 12 2z"/></svg>

<?xml version="1.0" encoding="UTF-8"?><!DOCTYPE svg PUBLIC "-//W3C//DTD SVG 1.1//EN" "http://www.w3.org/Graphics/SVG/1.1/DTD/svg11.dtd"><svg xmlns="http://www.w3.org/2000/svg" xmlns:xlink="http://www.w3.org/1999/xlink" version="1.1" id="mdi-alert-circle-check" width="24" height="24" viewBox="0 0 24 24"><path d="M18.75 22.16L16 19.16L17.16 18L18.75 19.59L22.34 16L23.5 17.41L18.75 22.16M13 13V7H11V13H13M13 17V15H11V17H13M12 2C17.5 2 22 6.5 22 12L21.91 13.31C21.31 13.11 20.67 13 20 13C16.69 13 14 15.69 14 19C14 19.95 14.22 20.85 14.62 21.65C13.78 21.88 12.91 22 12 22C6.5 22 2 17.5 2 12C2 6.5 6.5 2 12 2Z" /></svg>
